X:608
T:Fair Ellen.
R:air
T:ei.blin .ban
Z:collected from J. O'Neill
Z:Tempo:Moderate
M:2/4
L:1/8
Q:80
K:C
ed|dcB cA|G2 EF|GA G/F/E/F/|D2 Bc|
d2 e/f/g/e/|d2 d/e/c/A/|G2 BA|G3 G|
E2 dc|.B.A .G.F|E2 cB|MAG MFE|
D2 BA|MGF DE|C2 C2|C2||
zG|G2GFE|F3 c|dA fe|e2 dG|
PEPG PcPe|g3 g|ag fe|d3 e|
ff ag/f/|ee gf/e/|dd ec|A3 c|
GE Gc/d/|ec Hfe|dA Bc|c2||
